X: 16869
T: Haste To The Wedding
R: jig
M: 6/8
K: Dmajor
|:AFA Agf|ede fdB|AFA AdF|GFG E2G|
AFA Agf|ede fdB|AFA faf|1 d2d dcB:|2 d2d dfg||
|:afa afa|bgb bag|fga agf|gfg efg|
aba faf|ede fdB|AFA faf|1 d2d dfg:|2 d2d dcB||

